blockchains/ethereum/assets/0x4Fabb145d64652a948d72533023f6E7A623C7C53/logo.svg

<svg fill="none" height="250" viewBox="0 0 250 250" width="250" xmlns="http://www.w3.org/2000/svg"><g fill="#f0b90a"><path d="m62.6636 125.081-29.6629-29.663-29.66281 29.663 29.66281 29.663z"/><path d="m154.673 33.0378-29.663-29.6628-76.4024 76.4022 29.6629 29.6628z"/><path d="m200.412 78.8171-29.662-29.6628-122.1166 122.1157 29.6628 29.663z"/><path d="m246.59 124.955-29.663-29.6625-122.1164 122.1165 29.6624 29.662z"/></g></svg>

<svg width="250" height="250" viewBox="0 0 250 250" fill="none" xmlns="http://www.w3.org/2000/svg">
<path d="M62.6636 125.081L33.0007 95.418L3.33789 125.081L33.0007 154.744L62.6636 125.081Z" fill="#F0B90A"/>
<path d="M154.673 33.0378L125.01 3.375L48.6076 79.7772L78.2705 109.44L154.673 33.0378Z" fill="#F0B90A"/>
<path d="M200.412 78.8171L170.75 49.1543L48.6334 171.27L78.2962 200.933L200.412 78.8171Z" fill="#F0B90A"/>
<path d="M246.59 124.955L216.927 95.2925L94.8106 217.409L124.473 247.071L246.59 124.955Z" fill="#F0B90A"/>
</svg>
